packages/core/src/svgs/aht.svg

<svg width="24" height="24" viewBox="0 0 24 24" fill="none" xmlns="http://www.w3.org/2000/svg">
<g clip-path="url(#clip0_31_5755)">
<path d="M0 0H24V24H0V0Z" fill="#30BFBD"/>
<path fill-rule="evenodd" clip-rule="evenodd" d="M17.5714 6.85693H17.1429V8.57122H17.5714V6.85693ZM9.85716 7.28551H9.00002V14.9998H9.85716V12.4284C9.85716 11.9737 10.0378 11.5377 10.3593 11.2162C10.6808 10.8947 11.1168 10.7141 11.5714 10.7141C12.0261 10.7141 12.4621 10.8947 12.7836 11.2162C13.1051 11.5377 13.2857 11.9737 13.2857 12.4284V14.9998H14.1429V12.4284C14.1427 11.932 13.9989 11.4464 13.7288 11.03C13.4587 10.6136 13.0739 10.2842 12.6208 10.0817C12.1677 9.87917 11.6657 9.81208 11.1753 9.88855C10.6849 9.96502 10.2271 10.1818 9.85716 10.5126V7.28551ZM6.00002 14.9998C6.66002 14.9998 7.26002 14.7512 7.7143 14.3441V14.9998H8.57145V12.4284C8.57145 11.9198 8.42064 11.4226 8.13808 10.9998C7.85553 10.5769 7.45393 10.2473 6.98406 10.0527C6.51419 9.85805 5.99717 9.80712 5.49836 9.90634C4.99955 10.0056 4.54136 10.2505 4.18174 10.6101C3.82212 10.9697 3.57722 11.4279 3.478 11.9267C3.37878 12.4255 3.4297 12.9425 3.62433 13.4124C3.81895 13.8823 4.14854 14.2839 4.57141 14.5664C4.99428 14.849 5.49144 14.9998 6.00002 14.9998ZM6.00002 14.1426C6.45468 14.1426 6.89071 13.962 7.2122 13.6405C7.53369 13.3191 7.7143 12.883 7.7143 12.4284C7.7143 11.9737 7.53369 11.5377 7.2122 11.2162C6.89071 10.8947 6.45468 10.7141 6.00002 10.7141C5.54536 10.7141 5.10933 10.8947 4.78784 11.2162C4.46634 11.5377 4.28573 11.9737 4.28573 12.4284C4.28573 12.883 4.46634 13.3191 4.78784 13.6405C5.10933 13.962 5.54536 14.1426 6.00002 14.1426ZM17.1429 14.9998C17.8029 14.9998 18.4029 14.7512 18.8572 14.3441V14.9998H19.7143V12.4284C19.7143 11.9198 19.5635 11.4226 19.2809 10.9998C18.9984 10.5769 18.5968 10.2473 18.1269 10.0527C17.6571 9.85805 17.14 9.80712 16.6412 9.90634C16.1424 10.0056 15.6842 10.2505 15.3246 10.6101C14.965 10.9697 14.7201 11.4279 14.6209 11.9267C14.5216 12.4255 14.5726 12.9425 14.7672 13.4124C14.9618 13.8823 15.2914 14.2839 15.7143 14.5664C16.1371 14.849 16.6343 14.9998 17.1429 14.9998ZM17.1429 14.1426C17.5975 14.1426 18.0336 13.962 18.3551 13.6405C18.6766 13.3191 18.8572 12.883 18.8572 12.4284C18.8572 11.9737 18.6766 11.5377 18.3551 11.2162C18.0336 10.8947 17.5975 10.7141 17.1429 10.7141C16.6882 10.7141 16.2522 10.8947 15.9307 11.2162C15.6092 11.5377 15.4286 11.9737 15.4286 12.4284C15.4286 12.883 15.6092 13.3191 15.9307 13.6405C16.2522 13.962 16.6882 14.1426 17.1429 14.1426ZM14.4943 7.61122L14.1557 7.94979L15.5057 9.30408L15.8486 8.96122L14.4943 7.61122ZM20.5714 7.92836L20.2329 7.58979L18.8829 8.94408L19.2214 9.28693L20.5714 7.92836Z" fill="#FDFFFF"/>
</g>
<defs>
<clipPath id="clip0_31_5755">
<rect width="24" height="24" fill="white"/>
</clipPath>
</defs>
</svg>

<svg xmlns="http://www.w3.org/2000/svg" width="24" height="24" fill="none" viewBox="0 0 24 24"><g clip-path="url(#a)"><path fill="#30BFBD" d="M0 0h24v24H0z"/><path fill="#FDFFFF" fill-rule="evenodd" d="M17.571 6.857h-.428V8.57h.428zm-7.714.429H9V15h.857v-2.572a1.714 1.714 0 0 1 3.429 0V15h.857v-2.572a2.571 2.571 0 0 0-4.286-1.915zM6 15c.66 0 1.26-.249 1.714-.656V15h.857v-2.572A2.571 2.571 0 1 0 6 15m0-.857a1.714 1.714 0 1 0 0-3.429 1.714 1.714 0 0 0 0 3.429M17.143 15c.66 0 1.26-.249 1.714-.656V15h.857v-2.572A2.57 2.57 0 1 0 17.143 15m0-.857a1.714 1.714 0 1 0 0-3.43 1.714 1.714 0 0 0 0 3.43M14.494 7.61l-.338.339 1.35 1.354.343-.343zm6.077.317-.338-.338-1.35 1.354.338.343z" clip-rule="evenodd"/></g><defs><clipPath id="a"><path fill="#fff" d="M0 0h24v24H0z"/></clipPath></defs></svg>
